X:1
T:Title
T:Wer ein liebchen hat gefunden
T:Mozart
C:Composer
%%score 1 { ( 2 3 5 ) | 4 }
L:1/8
Q:1/4=70
M:6/8
K:Ab
V:1 bass nm="Bas" snm="Bs."
V:2 treble nm="Piano" snm="Pno."
V:3 treble 
V:5 treble 
V:4 bass 
V:1
 z2 z | z6 | z4 C,C, | F,2 F, F,2 F, | =E,G,C, z F,[Q:1/4=69]A, | %5
w: ||Wer ein|Lieb- chen hat ge-|fun- * den die es|
[Q:1/4=68] A,[Q:1/4=70]G,F, F,2 =E, | F,3[Q:1/4=65] z[Q:1/4=70] F,A, | A,G,G, G,2 G, | %8
w: treu- * und red- lich|meint lohn es|ihr- * durch tau- send|
 E,2 G, z F,A, | A,G,G, G,2 G, | =E,2 G, z C,C, | A,G,F, F,2 =E, | F,3[Q:1/4=66] z[Q:1/4=70] C,C, | %13
w: Küs- se Mach ihr|all- * das le- ben|süs- ser Sei ihr|Tröst- * ster, sei ihr|Freund, sei ihr|
 CB,A, A,2 G, |[Q:1/4=67] F,3[Q:1/4=65] A,,2[Q:1/4=63] G,, |[Q:1/4=61] F,,3[Q:1/4=70] C2 C | %16
w: Trö- * ster, sei ihr|Freund, sei ihr|Freund Tral- la-|
 C[Q:1/4=69]B,[Q:1/4=68]A,[Q:1/4=67] A,[Q:1/4=66]G,[Q:1/4=65]F, |[Q:1/4=64] F,2 F,[Q:1/4=68] C2 C | %18
w: le- * ra tral- * la-|le- ra, tra- la-|
[Q:1/4=66] CB,A,[Q:1/4=65] A,(3G,/4A,/4G,/4A,/4G,/4F, |[Q:1/4=63] .F,3[Q:1/4=61] z[Q:1/4=70] C,C, | %20
w: le- ra tra- la- * * * * * le|ra Doch sie|
 F,2 F, F,2 F, | =E,G,C, z F,A, | A,G,F, F,2 =E, | F,3 z F,A, | A,G,G, G,2 G, | E,2 G, z F,A, | %26
w: treu sich zu er-|hal- * ten, schliess' er|Lieb- chen- chen sorg- lich|ein; denn die|lo- * sen Ding- er|ha- schen je- den|
[Q:1/4=68] A,G,G, G,2 G, | =E,2 G, z[Q:1/4=70] C,C, | A,G,F, F,2 =E, | F,3 z C,C, | %30
w: Schmet- * ter- ling und|na- schen gar zu|gern _ von frem- dem|Wein gar zu|
 CB,[Q:1/4=69]A,[Q:1/4=68] A,2[Q:1/4=67] G, |[Q:1/4=66] F,2[Q:1/4=64] z/ F,/ A,,2[Q:1/4=63] G,, | %32
w: gern _ von frem- dem|Wein, von frem- dem|
[Q:1/4=62] F,,3[Q:1/4=70] C2[Q:1/4=69] C |[Q:1/4=67] CB,A,[Q:1/4=65] A,[Q:1/4=64]G,[Q:1/4=630]F, | %34
w: Wein Tra- la-|le- * ra, tral- * la-|
[Q:1/4=62] F,2 F,[Q:1/4=70] C2 C | %35
w: le- ra, tral- la-|
[Q:1/4=69] C[Q:1/4=68]B,[Q:1/4=67]A,[Q:1/4=66] A,[Q:1/4=65]G,[Q:1/4=64]F, | %36
w: le- ra, tra- la- * le-|
[Q:1/4=62] .F,3[Q:1/4=50] z[Q:1/4=70] C,C, | F,2 F, F,2 F, | =E,G,C, z F,A, | A,G,F, F,2 =E, | %40
w: ra Son- der-|lich beim Mon- den-|schei- * ne, Freun- de,|nehmt _ sie wohl in|
 F,3 z[Q:1/4=135]"^Allegro" F,A, | A,G,G, G,2 G, | E,2 G, z F,A, | A,G,G, G,2 G, | %44
w: acht oft lauscht|da _ ein jun- ges|Herr- chen, kirrt und|lockt _ das klei- ne|
 =E,2 G,[Q:1/4=50] z"^A tempo"[Q:1/4=70] C,C, |[Q:1/4=68] A,G,F, F,2 =E, | F,3 z[Q:1/4=70] C,C, | %47
w: Närr- chen und dann|Treu- * e gu- te|Nacht, und dann|
[Q:1/4=69] C[Q:1/4=68]B,[Q:1/4=67]A,[Q:1/4=66] A,2[Q:1/4=65] G, |[Q:1/4=64] .F,3 A,,2 G,, | %49
w: Treu- * e gu- te|Nacht gu- te|
[Q:1/4=61] F,,3[Q:1/4=70] C2 C | CB,A, A,G,F, | F,2 F, C2 C | CB,A, (3A,/4B,/4A,/4B,/4<A,/4G,F, | %53
w: Nacht Tra- la-|le- * ra tra- * la-|le- ra, Tra- la-|le- ra, tral- la _ _ _ _ _ le|
 F,3 z z2 |] %54
w: ra|
V:2
 c2 c | cB.A [C=EA][B,G].[A,F] | .[A,CF]3- [A,CF] z z | .[A,CF]3 .[A,CF]3 | .[G,C=E]3 .[CFA]3 | %5
 AG.F F2 =E | .[A,CF]3 .[CFA]3 | .[CEG]3 .[=DFG]3 | .[CEG]3 .[CFA]3 | .[CEG]3 .[=DFG]3 | %10
 .[C=EG]3 .[=E,G,C]3 | F,/A,/C/A,/C/A,/ G,/B,/C/B,/C/B,/ | F,/A,/C/A,/C/A,/ A,/C/F/C/F/C/ | %13
 A,/C/F/C/F/C/ B,/C/=E/C/E/C/ |[K:treble] .[A,F]3 [cfa]2 [B=eg] | .[Af]3 z cc | cB.A AG.[A,F] | %17
 [A,F]3 c2 c | cB.A [=EA]G.F | .[A,CF]3- [A,CF]3 | z cf z af | z =eg z c'a | z gb z c=e | %23
 z fc z AF | z ^fg z ag | z =bc' z =B,C | z ^fg z ag | z =bc' z =B,C | z cf z f=e | z fa z ac' | %30
 z ca z ag | z fA z c=E | F3 c2 c | cB.A [CA][B,G].[A,F] | [A,F]3 c2 c | %35
 [^Fc]B.[=FA] [CFA][B,=EG].[A,F] | .[A,CF]3- [A,CF]3 | f/=e/f/g/a/g/ f/e/f/g/a/f/ | %38
 =e/f/g/c/=d/e/ f/g/a/b/c'/a/ | g/a/b/c'/d'/b/ a/b/c'/c/=d/=e/ | f/d/c/B/A/G/ .F3 | %41
 .[CEG]3 .[=DFG]3 | .[CEG]3 .[CFA]3 | .[CEG]3 .[=DFG]3 | .[C=EG]3 z3 | z CF z F=E | z FA z Ac | %47
 z CF z .[FA]3/2 z/4 c/4 | c'b.a [fa]2 [fg] | .f3 c2 c | cB.A AG.F | F3 c2 c | %52
 [c=d][B=e].[Af] [Af](5:4:5e/4f/8e/8f/4e/[Ff] | [Ff]3 z z2 |] %54
V:3
 [CF]3 | [DF]3 x3 | x6 | x6 | x6 | [B,D]3 [B,C]3 | x6 | x6 | x6 | x6 | x6 | x6 | x6 | x6 | %14
[K:treble] x6 | x3 C3 | D3 .C3 | x3 [CF-]3 | F3 x3 | x6 | x6 | x6 | x6 | x6 | x6 | x6 | x6 | x6 | %28
 x6 | x6 | x6 | x6 | x3 C3 | D3 x3 | x3 [EF]3 | D3 x3 | x6 | x6 | x6 | x6 | x6 | x6 | x6 | x6 | %44
 x6 | x6 | x6 | z3 z2 [=EG] | x6 | z3 [CF]3 | [DF]3 .=E3 | x6 | z3 z .G2 | x3 z z2 |] %54
V:4
 A,,3 | B,,3 C,3 | .F,,3- F,, z z | .F,,3 .A,,3 | .C,3 .A,,3 | .B,,3 .C,3 | .F,,3 .F,3 | %7
 .C,3 .=B,,3 | .C,3 .F,3 | .C,3 .=B,,3 | .C,3 .C,,3 | .F,,3 .C,,3 | .F,,3 .F,,3 | .F,3 .C,3 | %14
 .F,,3 C3 | .F3[K:bass] F,3- | F,3 =E,2 F, | F,3 A,,3 | B,,3 C,3 | .F,3- F,3 | .A,3 .=B,3 | %21
 .C3 .F,3 | .G,3 .B,3 | .A,3 .F,3 | C,/E,/G,/E,/G,/E,/ =B,,/=D,/F,/D,/F,/D,/ | %25
 C,/E,/G,/E,/G,/E,/ F,,/F,/A,/F,/A,/F,/ | C,/E,/G,/E,/G,/E,/ =B,,/=D,/F,/D,/F,/D,/ | %27
 C,/=E,/G,/E,/G,/E,/ C,/E,/B,/E,/B,/E,/ | F,,/F,/A,/F,/A,/F,/ C,/G,/B,/G,/B,/G,/ | %29
 A,,/C,/F,/C,/F,/C,/ F,,/C,/F,/C,/F,/C,/ | F,,/F,/A,/F,/A,/F,/ C,/=E,/B,/E,/B,/E,/ | .A,3 C2 B, | %32
 A,3 F,3- | F,3 =E,2 F, | F,3 =A,,3 | B,,3 C,3 | .F,3- F,3 | .C3 .A,3 | .G,3 .F,3 | .G,3 .A,2 B, | %40
 .A,3 .C3 | .C,3 .=B,,3 | .C,3 .F,3 | .C,3 .=B,,3 | .C,3 z3 | %45
 F,,/F,/A,/F,/A,/F,/ C,/G,/B,/G,/B,/G,/ | A,,/C,/F,/C,/F,/C,/ F,,/C,/F,/C,/F,/C,/ | %47
 F,,/F,/A,/F,/A,/F,/ C,/C/C,/C/C,/B,/ | .A,3 C2 B, | .A,3 A,,3 | B,,3 CB,.A, | A,3 F,3- | %52
 F,2 .=D CB,.A, | A,3 z z2 |] %54
V:5
 x3 | x6 | x6 | x6 | x6 | x6 | x6 | x6 | x6 | x6 | x6 | x6 | x6 | x6 |[K:treble] x6 | x6 | x6 | %17
 x6 | D3 B,3 | x6 | x6 | x6 | x6 | x6 | x6 | x6 | x6 | x6 | x6 | x6 | x6 | x6 | x6 | x6 | x6 | x6 | %36
 x6 | x6 | x6 | x6 | x6 | x6 | x6 | x6 | x6 | x6 | x6 | x6 | x6 | x6 | x6 | x6 | x6 | x3 z z2 |] %54

